branding/FullColor.svg

<svg height="1024pt" viewBox="0 0 2048 1024" width="2048pt" xmlns="http://www.w3.org/2000/svg" xmlns:xlink="http://www.w3.org/1999/xlink"><clipPath id="a"><path d="m0 0h2048v1024h-2048z"/></clipPath><g clip-path="url(#a)"><path d="m0 0h2048v1024h-2048z" fill="none"/><path d="m205.059 866.543c-27.846-71.03 28.047-260.151 101.238-443.311 9.773-24.458 19.594-47.812 29.463-70.062q116.643-262.988 242.116-320.268-6.709 50.41-5.726 69.326.983 18.915 3.658 33.722 39.084-.821 91.44 7.112 52.357 7.932 89.167 24.349 40.038-30.513 72.104-44.004 32.067-13.491 84.688-18.646-87.873 277.801-94.117 382.634c-10.215 171.514 5.189 282.914 8.532 331.717 22.174 2.937 43.778.436 76.159-11.707 18.654-6.995 43.646-27.972 36.101-62.842-4.89-22.595-35.436-26.6-53.483-24.067-7.467 1.048-22.531-.895-26.073-12.702-4.011-13.371 6.924-23.592 16.045-27.41 20.053-8.394 60.674-15.162 90.493 12.448 25.239 23.37 26.015 58.411 20.984 85.04-4.739 25.083-23.193 44.177-38.393 55.771-29.357 22.393-79.226 36.598-119.202 42.357-2.574 27.061-25.87 37.58-44.087 45.56-58.15 25.474-166.645 38.804-278.926 34-162.28-6.943-282.259-38.197-302.181-89.017z" fill="#446adb"/><path d="m604.8 365.9c-.7 3.8-2.1 7.4-4 10.7-1.8 3-4.1 5.7-6.9 7.8-2.9 2.2-6.1 3.8-9.6 4.8-4.1 1.2-8.4 1.8-12.7 1.8-4.3.1-8.6-.6-12.7-1.8-3.6-1.1-6.9-3-9.7-5.4-2.9-2.4-5.2-5.4-6.8-8.8-1.9-3.9-3.3-8.1-3.9-12.4-.3-2.2.2-4.4 1.5-6.2 1.3-1.7 3.2-2.9 5.4-3.2 2.2-.4 4.4.2 6.2 1.5 1.7 1.3 2.9 3.2 3.3 5.4.4 2.6 1.2 5.2 2.3 7.6.7 1.3 1.6 2.5 2.8 3.5 1.1 1 2.4 1.7 3.8 2.1 2.5.8 5.1 1.2 7.7 1.2 2.8 0 5.6-.4 8.3-1.2 1.5-.4 2.8-1.1 4.1-2 1-.9 1.9-1.9 2.6-3 1-1.8 1.7-3.7 2.1-5.7.4-2.1 1.7-4 3.5-5.2 1.9-1.2 4.1-1.7 6.3-1.2 2.1.4 4 1.7 5.2 3.5s1.7 4.1 1.2 6.2z" fill="#fff"/><path d="m546.385 198.867c17.303 4.362 4.267 38.63-1.203 53.411-5.47 14.78-17.347 49.534-31.878 46.554-14.531-2.981-9.846-38.5-2.767-59.666 7.08-21.167 18.545-44.661 35.848-40.299z" fill="#fff"/><path d="m695.211 221.325c17.303 4.362 7.564 38.294 2.094 53.074-5.47 14.781-17.347 49.535-31.878 46.555-14.531-2.981-9.847-38.5-2.767-59.667 7.079-21.166 15.249-44.324 32.551-39.962z" fill="#fff"/><g fill="#446adb"><path d="m1333.3 614.6c4.3 2.1 9 3.2 13.8 3.4 7.1-.3 13.9-3 19.4-7.7 9-7.8 16.4-17.3 21.7-28 3.1-6.3 8.6-11.1 15.2-13.4 6.7-2.3 14-1.8 20.3 1.3s11.1 8.6 13.4 15.3c2.2 6.6 1.8 13.9-1.3 20.2-8.5 17.2-20.3 32.4-34.8 44.8-15 12.9-34 20.2-53.7 20.5-14.5-.1-28.7-3.9-41.4-11-10.8-6.2-18.9-16.3-22.7-28.2-3.4-10.3-4.9-21.1-4.6-31.9.2-14.1 1.8-28.2 4.6-42 3.1-16 7-31.9 11.7-47.5 10.4-35 22.8-69.4 37.1-103 13.2-32 28-63.4 44.2-94 6.5-12.2 13.5-24.3 20.8-36 5.6-9.3 12-18 19.1-26.1 4.6-5.3 11.1-8.6 18.2-9.1 7-.5 13.9 1.9 19.2 6.5s8.5 11.1 9 18.2c.5 7-1.8 13.9-6.4 19.2-5.2 5.9-9.9 12.3-13.9 19.1-6.8 10.7-13.2 21.8-19.1 33-15.5 29.2-29.6 59.2-42.2 89.7-13.6 31.9-25.3 64.5-35.2 97.7-4.2 14-7.7 28.3-10.5 42.7-2.2 10.8-3.4 21.8-3.6 32.9-.2 4.5.4 9 1.7 13.4z"/><path d="m1305.246 400.349c-4.969-.331-9.939-2.651-13.584-6.627s-5.632-8.945-5.301-14.247c.331-5.301 2.651-10.271 6.626-13.915 3.645-3.313 8.946-5.301 14.247-4.97 29.488 1.325 59.303.295 88.795-2.982 17.892-1.988 48.311-9.483 66.372-15.974 17.299-6.217 37.056-8.037 33.605 13.572-2.674 16.748-13.4 23.17-23.583 27.091-21.477 8.271-60.896 14.517-71.755 14.739-33.392.68-63.614 4.638-95.422 3.313z"/><path d="m1687 644.3c-3.9 3.3-8 6.4-12.3 9.3-15.3 9.9-32 17.6-49.4 23-12.4 3.9-24.9 7.2-37.6 10-4.9 1.1-9.8 2.2-14.7 3.5-7.3 18.4-15 36.8-22.9 55.1-13.1 30.6-28.2 60.4-45.4 89-7.5 12.5-15.8 24.5-24.9 35.9-8.2 10.5-17.6 20.2-27.8 28.8-7.6 6.1-16.3 10.5-25.6 13.2-9.1 2.7-18.6 4.1-28.2 4.1-19.7.5-39.1-5.9-54.6-18.2-8.9-7.3-15.9-16.7-20.5-27.3-4.8-11.6-7.2-24.1-7-36.7 0 0 .1-.1.1-.2l.1-4.8c0-.2 0-.3 0-.5 1.2-26.6 10.5-52.3 26.7-73.5 12.1-15 26.4-27.9 42.5-38.5 33.4-23.5 69.5-42.8 107.6-57.4 13.3-4.8 26.6-9.2 40.2-13.2 2.9-7.6 5.7-15.3 8.6-23.1l38.5-108c11.2-32.4 22.7-64.7 34.5-96.9 10.3-28.4 21.5-56.5 33.7-84.2 2.8-6.5 8.1-11.5 14.6-14.1 6.6-2.6 13.9-2.4 20.3.4s11.5 8.1 14.1 14.7c2.5 6.5 2.4 13.8-.5 20.2-11.6 26.7-22.5 53.8-32.4 81.2l-34.2 96.1-34.9 97.9c4.7-1.3 9.3-2.7 14-4.1 12.6-3.9 24.7-9.5 35.9-16.6 5-3.5 9.6-7.4 13.8-11.9 2.2-2.5 4.6-4.8 7.2-6.9 6.2-5.2 14-8 22.1-7.9 8.1.4 15.9 3.9 21.7 9.6 2.4 2.2 4.7 4.6 6.8 7 5.1 5.7 10.8 10.8 16.9 15.4 2.2 1.4 4.6 2.4 7.2 3 4.9 1.5 9.9 2.2 15 2.1 7.4.4 14.6-2.1 20.3-6.8 2.8-2.7 5-6.1 6.4-9.8 2.6-7.2 4-14.9 3.9-22.7 0-.1 0-.2 0-.3l.1-1.2c-.2-8.1-1.7-16.2-4.6-23.7-3.7-9.6-8-18.8-12.8-27.8-7.4-13.7-13.6-27.9-18.7-42.5-2.3-7.1-3.4-14.5-3.5-21.9-.3-24 11.2-46.7 30.7-60.5 11.6-8.1 25.2-12.4 39.3-12.5 12.7-.1 25.2 3.8 35.6 11 11.3 8.2 19.6 19.9 23.5 33.3 1.3 3.9 2 8 2.3 12.1 1 8.8-1.6 17.7-7.1 24.7-5.5 6.9-13.5 11.4-22.3 12.4-13 1-25.3-6.4-30.5-18.4-3-7.1-2.8-15 .4-21.9-.5-.1-1-.2-1.5-.2-3.3 0-6.5 1-9.2 2.8-5.3 3.9-8.4 10.2-8.1 16.8-.1 1.9.2 3.8.7 5.6 4.1 11.7 9.2 23.1 15.1 34.1 5.9 10.9 11 22.2 15.5 33.8 5.2 13.5 8 27.8 8.2 42.3v.6 1.5c0 14-2.5 27.9-7.3 41.1-4.4 11.7-11.5 22.2-20.6 30.7-15.6 13.7-35.9 21-56.6 20.5-9.5-.1-19-1.4-28.1-4-8.5-2.2-16.6-5.9-23.8-10.9-5.8-4.2-11.3-8.8-16.5-13.7zm-179.7 66.2c-32.5 12.9-63.4 29.6-92 49.8-11.5 7.5-21.9 16.8-30.6 27.4-9.3 12.5-14.7 27.4-15.4 43l-.2 4.4c0 5.1.9 10.2 2.8 14.9 1.2 2.6 2.9 4.9 5.1 6.8 5.9 4.5 13.1 6.7 20.5 6.4 4.8.1 9.5-.6 14.1-2 2.5-.7 4.8-1.8 6.9-3.4 7.2-6.2 13.8-13.1 19.7-20.5 7.7-9.7 14.7-19.8 21.1-30.4 15.9-26.6 30-54.2 42.1-82.7 2-4.6 4-9.1 5.9-13.7z" fill-rule="evenodd"/><circle cx="1694.685252" cy="265.355065" r="29.819199"/><circle cx="1492.170934" cy="603.051473" r="33.285032"/><path d="m1200.9 465.4c1-6.2 4.2-11.9 9.1-16-.3-.7-.7-1.3-1-1.9-.8-1.2-2-2.1-3.4-2.4l-3.7-.2c-4.3.2-8.4 1.3-12.2 3.3-7 3.8-13.8 8.1-20.2 12.9-.2.2-.4.3-.6.5l-.5.3c-12.8 9.3-23.8 20.8-32.4 34.1-11 16.2-19 34.3-23.6 53.4-1.5 6-2.3 12.2-2.3 18.3-.1 8.2 1.9 16.4 5.7 23.6 3.7 6.7 8.8 12.4 15 16.9 15.5 10.7 34 16.3 52.8 15.8 12.2.2 24.3-2.2 35.4-7.3 17-8.3 32.5-19.4 45.8-32.9 5-5 9.7-10.5 13.8-16.3 1.5-1.8 2.7-3.9 3.4-6.1 2.1-6.7 6.8-12.3 13-15.5 6.3-3.3 13.5-3.9 20.2-1.8s12.3 6.8 15.6 13.1c3.2 6.2 3.8 13.5 1.7 20.2-2.5 8-6.4 15.4-11.6 22-5.6 7.8-11.8 15.1-18.7 21.9-17.6 17.8-38 32.4-60.5 43.3-18.2 8.4-38 12.7-58 12.4-29.8.5-59-8.4-83.5-25.5-12.8-9.2-23.5-21.1-31.1-35-8-15.1-12.2-32-12-49.2.1-10.2 1.3-20.4 3.8-30.4 6-25.1 16.5-48.9 31-70.3 12.2-18.5 27.6-34.7 45.5-47.7.1-.1.2-.2.3-.2l.3-.2c8.5-6.4 17.4-12.1 26.8-17.1 11.4-6 24-9.3 36.9-9.6.8 0 1.5 0 2.2.1l6.1.3c.6.1 1.2.1 1.8.2 17.6 2.3 33.3 12.4 42.5 27.7 6.9 11.4 10.6 24.6 10.5 38 .1 6-.7 12-2.5 17.7-2.6 10-9.7 18.2-19.2 22.2-2.1.9-4.3 1.6-6.6 1.9l-2.5.3c-.4.1-.8.1-1.1.2-7.8.8-15.6-1.6-21.7-6.6-6.1-4.9-9.9-12.1-10.7-19.9-.3-2.3-.2-4.6.2-6.8z"/></g></g></svg>

<?xml version="1.0" encoding="UTF-8" standalone="no"?><!-- Generator: Gravit.io --><svg xmlns="http://www.w3.org/2000/svg" xmlns:xlink="http://www.w3.org/1999/xlink" style="isolation:isolate" viewBox="0 0 2048 1024" width="2048pt" height="1024pt"><defs><clipPath id="_clipPath_L1ZmWQD6XRvJPMfLTPge5GL3gI9yybWN"><rect width="2048" height="1024"/></clipPath></defs><g clip-path="url(#_clipPath_L1ZmWQD6XRvJPMfLTPge5GL3gI9yybWN)"><rect width="2048" height="1024" style="fill:rgb(0,0,0)" fill-opacity="0"/><g><g><path d=" M 205.059 866.543 C 177.213 795.513 233.106 606.392 306.297 423.232 C 316.07 398.774 325.891 375.42 335.76 353.17 Q 452.403 90.182 577.876 32.902 Q 571.167 83.312 572.15 102.228 Q 573.133 121.143 575.808 135.95 Q 614.892 135.129 667.248 143.062 Q 719.605 150.994 756.415 167.411 Q 796.453 136.898 828.519 123.407 Q 860.586 109.916 913.207 104.761 Q 825.334 382.562 819.09 487.395 C 808.875 658.909 824.279 770.309 827.622 819.112 C 849.796 822.049 871.4 819.548 903.781 807.405 C 922.435 800.41 947.427 779.433 939.882 744.563 C 934.992 721.968 904.446 717.963 886.399 720.496 C 878.932 721.544 863.868 719.601 860.326 707.794 C 856.315 694.423 867.25 684.202 876.371 680.384 C 896.424 671.99 937.045 665.222 966.864 692.832 C 992.103 716.202 992.879 751.243 987.848 777.872 C 983.109 802.955 964.655 822.049 949.455 833.643 C 920.098 856.036 870.229 870.241 830.253 876 C 827.679 903.061 804.383 913.58 786.166 921.56 C 728.016 947.034 619.521 960.364 507.24 955.56 C 344.96 948.617 224.981 917.363 205.059 866.543 Z " fill="rgb(68,106,219)"/><path d=" M 604.8 365.9 C 604.1 369.7 602.7 373.3 600.8 376.6 C 599 379.6 596.7 382.3 593.9 384.4 C 591 386.6 587.8 388.2 584.3 389.2 C 580.2 390.4 575.9 391 571.6 391 C 567.3 391.1 563 390.4 558.9 389.2 C 555.3 388.1 552 386.2 549.2 383.8 C 546.3 381.4 544 378.4 542.4 375 C 540.5 371.1 539.1 366.9 538.5 362.6 C 538.2 360.4 538.7 358.2 540 356.4 C 541.3 354.7 543.2 353.5 545.4 353.2 C 547.6 352.8 549.8 353.4 551.6 354.7 C 553.3 356 554.5 357.9 554.9 360.1 C 555.3 362.7 556.1 365.3 557.2 367.7 C 557.9 369 558.8 370.2 560 371.2 C 561.1 372.2 562.4 372.9 563.8 373.3 C 566.3 374.1 568.9 374.5 571.5 374.5 C 574.3 374.5 577.1 374.1 579.8 373.3 C 581.3 372.9 582.6 372.2 583.9 371.3 C 584.9 370.4 585.8 369.4 586.5 368.3 C 587.5 366.5 588.2 364.6 588.6 362.6 C 589 360.5 590.3 358.6 592.1 357.4 C 594 356.2 596.2 355.7 598.4 356.2 C 600.5 356.6 602.4 357.9 603.6 359.7 C 604.8 361.5 605.3 363.8 604.8 365.9 Z " fill="rgb(255,255,255)"/><path d=" M 546.385 198.867 C 563.688 203.229 550.652 237.497 545.182 252.278 C 539.712 267.058 527.835 301.812 513.304 298.832 C 498.773 295.851 503.458 260.332 510.537 239.166 C 517.617 217.999 529.082 194.505 546.385 198.867 Z " fill="rgb(255,255,255)"/><path d=" M 695.211 221.325 C 712.514 225.687 702.775 259.619 697.305 274.399 C 691.835 289.18 679.958 323.934 665.427 320.954 C 650.896 317.973 655.58 282.454 662.66 261.287 C 669.739 240.121 677.909 216.963 695.211 221.325 Z " fill="rgb(255,255,255)"/><path d=" M 1333.3 614.6 C 1337.6 616.7 1342.3 617.8 1347.1 618 C 1354.2 617.7 1361 615 1366.5 610.3 C 1375.5 602.5 1382.9 593 1388.2 582.3 C 1391.3 576 1396.8 571.2 1403.4 568.9 C 1410.1 566.6 1417.4 567.1 1423.7 570.2 C 1430 573.3 1434.8 578.8 1437.1 585.5 C 1439.3 592.1 1438.9 599.4 1435.8 605.7 C 1427.3 622.9 1415.5 638.1 1401 650.5 C 1386 663.4 1367 670.7 1347.3 671 C 1332.8 670.9 1318.6 667.1 1305.9 660 C 1295.1 653.8 1287 643.7 1283.2 631.8 C 1279.8 621.5 1278.3 610.7 1278.6 599.9 C 1278.8 585.8 1280.4 571.7 1283.2 557.9 C 1286.3 541.9 1290.2 526 1294.9 510.4 C 1305.3 475.4 1317.7 441 1332 407.4 C 1345.2 375.4 1360 344 1376.2 313.4 C 1382.7 301.2 1389.7 289.1 1397 277.4 C 1402.6 268.1 1409 259.4 1416.1 251.3 C 1420.7 246 1427.2 242.7 1434.3 242.2 C 1441.3 241.7 1448.2 244.1 1453.5 248.7 C 1458.8 253.3 1462 259.8 1462.5 266.9 C 1463 273.9 1460.7 280.8 1456.1 286.1 C 1450.9 292 1446.2 298.4 1442.2 305.2 C 1435.4 315.9 1429 327 1423.1 338.2 C 1407.6 367.4 1393.5 397.4 1380.9 427.9 C 1367.3 459.8 1355.6 492.4 1345.7 525.6 C 1341.5 539.6 1338 553.9 1335.2 568.3 C 1333 579.1 1331.8 590.1 1331.6 601.2 C 1331.4 605.7 1332 610.2 1333.3 614.6 Z " fill="rgb(68,106,219)"/><path d=" M 1305.246 400.349 C 1300.277 400.018 1295.307 397.698 1291.662 393.722 C 1288.017 389.746 1286.03 384.777 1286.361 379.475 C 1286.692 374.174 1289.012 369.204 1292.987 365.56 C 1296.632 362.247 1301.933 360.259 1307.234 360.59 C 1336.722 361.915 1366.537 360.885 1396.029 357.608 C 1413.921 355.62 1444.34 348.125 1462.401 341.634 C 1479.7 335.417 1499.457 333.597 1496.006 355.206 C 1493.332 371.954 1482.606 378.376 1472.423 382.297 C 1450.946 390.568 1411.527 396.814 1400.668 397.036 C 1367.276 397.716 1337.054 401.674 1305.246 400.349 Z " fill="rgb(68,106,219)"/><path d=" M 1687 644.3 C 1683.1 647.6 1679 650.7 1674.7 653.6 C 1659.4 663.5 1642.7 671.2 1625.3 676.6 C 1612.9 680.5 1600.4 683.8 1587.7 686.6 C 1582.8 687.7 1577.9 688.8 1573 690.1 C 1565.7 708.5 1558 726.9 1550.1 745.2 C 1537 775.8 1521.9 805.6 1504.7 834.2 C 1497.2 846.7 1488.9 858.7 1479.8 870.1 C 1471.6 880.6 1462.2 890.3 1452 898.9 C 1444.4 905 1435.7 909.4 1426.4 912.1 C 1417.3 914.8 1407.8 916.2 1398.2 916.2 C 1378.5 916.7 1359.1 910.3 1343.6 898 C 1334.7 890.7 1327.7 881.3 1323.1 870.7 C 1318.3 859.1 1315.9 846.6 1316.1 834 C 1316.1 834 1316.2 833.9 1316.2 833.8 L 1316.3 829 C 1316.3 828.8 1316.3 828.7 1316.3 828.5 C 1317.5 801.9 1326.8 776.2 1343 755 C 1355.1 740 1369.4 727.1 1385.5 716.5 C 1418.9 693 1455 673.7 1493.1 659.1 C 1506.4 654.3 1519.7 649.9 1533.3 645.9 C 1536.2 638.3 1539 630.6 1541.9 622.8 L 1580.4 514.8 C 1591.6 482.4 1603.1 450.1 1614.9 417.9 C 1625.2 389.5 1636.4 361.4 1648.6 333.7 C 1651.4 327.2 1656.7 322.2 1663.2 319.6 C 1669.8 317 1677.1 317.2 1683.5 320 C 1689.9 322.8 1695 328.1 1697.6 334.7 C 1700.1 341.2 1700 348.5 1697.1 354.9 C 1685.5 381.6 1674.6 408.7 1664.7 436.1 L 1630.5 532.2 L 1595.6 630.1 C 1600.3 628.8 1604.9 627.4 1609.6 626 C 1622.2 622.1 1634.3 616.5 1645.5 609.4 C 1650.5 605.9 1655.1 602 1659.3 597.5 C 1661.5 595 1663.9 592.7 1666.5 590.6 C 1672.7 585.4 1680.5 582.6 1688.6 582.7 C 1696.7 583.1 1704.5 586.6 1710.3 592.3 C 1712.7 594.5 1715 596.9 1717.1 599.3 C 1722.2 605 1727.9 610.1 1734 614.7 C 1736.2 616.1 1738.6 617.1 1741.2 617.7 C 1746.1 619.2 1751.1 619.9 1756.2 619.8 C 1763.6 620.2 1770.8 617.7 1776.5 613 C 1779.3 610.3 1781.5 606.9 1782.9 603.2 C 1785.5 596 1786.9 588.3 1786.8 580.5 C 1786.8 580.4 1786.8 580.3 1786.8 580.2 L 1786.9 579 C 1786.7 570.9 1785.2 562.8 1782.3 555.3 C 1778.6 545.7 1774.3 536.5 1769.5 527.5 C 1762.1 513.8 1755.9 499.6 1750.8 485 C 1748.5 477.9 1747.4 470.5 1747.3 463.1 C 1747 439.1 1758.5 416.4 1778 402.6 C 1789.6 394.5 1803.2 390.2 1817.3 390.1 C 1830 390 1842.5 393.9 1852.9 401.1 C 1864.2 409.3 1872.5 421 1876.4 434.4 C 1877.7 438.3 1878.4 442.4 1878.7 446.5 C 1879.7 455.3 1877.1 464.2 1871.6 471.2 C 1866.1 478.1 1858.1 482.6 1849.3 483.6 C 1836.3 484.6 1824 477.2 1818.8 465.2 C 1815.8 458.1 1816 450.2 1819.2 443.3 C 1818.7 443.2 1818.2 443.1 1817.7 443.1 C 1814.4 443.1 1811.2 444.1 1808.5 445.9 C 1803.2 449.8 1800.1 456.1 1800.4 462.7 C 1800.3 464.6 1800.6 466.5 1801.1 468.3 C 1805.2 480 1810.3 491.4 1816.2 502.4 C 1822.1 513.3 1827.2 524.6 1831.7 536.2 C 1836.9 549.7 1839.7 564 1839.9 578.5 C 1839.9 578.7 1839.9 578.9 1839.9 579.1 L 1839.9 580.6 C 1839.9 594.6 1837.4 608.5 1832.6 621.7 C 1828.2 633.4 1821.1 643.9 1812 652.4 C 1796.4 666.1 1776.1 673.4 1755.4 672.9 C 1745.9 672.8 1736.4 671.5 1727.3 668.9 C 1718.8 666.7 1710.7 663 1703.5 658 C 1697.7 653.8 1692.2 649.2 1687 644.3 Z  M 1507.3 710.5 C 1474.8 723.4 1443.9 740.1 1415.3 760.3 C 1403.8 767.8 1393.4 777.1 1384.7 787.7 C 1375.4 800.2 1370 815.1 1369.3 830.7 L 1369.1 835.1 C 1369.1 840.2 1370 845.3 1371.9 850 C 1373.1 852.6 1374.8 854.9 1377 856.8 C 1382.9 861.3 1390.1 863.5 1397.5 863.2 C 1402.3 863.3 1407 862.6 1411.6 861.2 C 1414.1 860.5 1416.4 859.4 1418.5 857.8 C 1425.7 851.6 1432.3 844.7 1438.2 837.3 C 1445.9 827.6 1452.9 817.5 1459.3 806.9 C 1475.2 780.3 1489.3 752.7 1501.4 724.2 C 1503.4 719.6 1505.4 715.1 1507.3 710.5 Z " fill-rule="evenodd" fill="rgb(68,106,219)"/><circle vector-effect="non-scaling-stroke" cx="1694.6852520610873" cy="265.3550653679257" r="29.819199111164153" fill="rgb(68,106,219)"/><circle vector-effect="non-scaling-stroke" cx="1492.1709338447" cy="603.0514733697969" r="33.28503189642447" fill="rgb(68,106,219)"/><path d=" M 1200.9 465.4 C 1201.9 459.2 1205.1 453.5 1210 449.4 C 1209.7 448.7 1209.3 448.1 1209 447.5 C 1208.2 446.3 1207 445.4 1205.6 445.1 L 1201.9 444.9 C 1197.6 445.1 1193.5 446.2 1189.7 448.2 C 1182.7 452 1175.9 456.3 1169.5 461.1 C 1169.3 461.3 1169.1 461.4 1168.9 461.6 L 1168.4 461.9 C 1155.6 471.2 1144.6 482.7 1136 496 C 1125 512.2 1117 530.3 1112.4 549.4 C 1110.9 555.4 1110.1 561.6 1110.1 567.7 C 1110 575.9 1112 584.1 1115.8 591.3 C 1119.5 598 1124.6 603.7 1130.8 608.2 C 1146.3 618.9 1164.8 624.5 1183.6 624 C 1195.8 624.2 1207.9 621.8 1219 616.7 C 1236 608.4 1251.5 597.3 1264.8 583.8 C 1269.8 578.8 1274.5 573.3 1278.6 567.5 C 1280.1 565.7 1281.3 563.6 1282 561.4 C 1284.1 554.7 1288.8 549.1 1295 545.9 C 1301.3 542.6 1308.5 542 1315.2 544.1 C 1321.9 546.2 1327.5 550.9 1330.8 557.2 C 1334 563.4 1334.6 570.7 1332.5 577.4 C 1330 585.4 1326.1 592.8 1320.9 599.4 C 1315.3 607.2 1309.1 614.5 1302.2 621.3 C 1284.6 639.1 1264.2 653.7 1241.7 664.6 C 1223.5 673 1203.7 677.3 1183.7 677 C 1153.9 677.5 1124.7 668.6 1100.2 651.5 C 1087.4 642.3 1076.7 630.4 1069.1 616.5 C 1061.1 601.4 1056.9 584.5 1057.1 567.3 C 1057.2 557.1 1058.4 546.9 1060.9 536.9 C 1066.9 511.8 1077.4 488 1091.9 466.6 C 1104.1 448.1 1119.5 431.9 1137.4 418.9 C 1137.5 418.8 1137.6 418.7 1137.7 418.7 L 1138 418.5 C 1146.5 412.1 1155.4 406.4 1164.8 401.4 C 1176.2 395.4 1188.8 392.1 1201.7 391.8 C 1202.5 391.8 1203.2 391.8 1203.9 391.9 L 1210 392.2 C 1210.6 392.3 1211.2 392.3 1211.8 392.4 C 1229.4 394.7 1245.1 404.8 1254.3 420.1 C 1261.2 431.5 1264.9 444.7 1264.8 458.1 C 1264.9 464.1 1264.1 470.1 1262.3 475.8 C 1259.7 485.8 1252.6 494 1243.1 498 C 1241 498.9 1238.8 499.6 1236.5 499.9 L 1234 500.2 C 1233.6 500.3 1233.2 500.3 1232.9 500.4 C 1225.1 501.2 1217.3 498.8 1211.2 493.8 C 1205.1 488.9 1201.3 481.7 1200.5 473.9 C 1200.2 471.6 1200.3 469.3 1200.7 467.1 L 1200.9 465.4 Z " fill="rgb(68,106,219)"/></g></g></g></svg>
